X:8
M:C
L:1/8
Q:1/4=120
K:B Minor
d2 (cd) (fe)dc|f2B2^A2 GF|E2E2F2^A2|B2 B^A [D4B4]|d2 (cd) fedc|
f2B2^A2 (GF)|E2E2F2^A2|B2 B^A [D4B4]||d2dd e2ee|f2 f^e f2F2|
(Fd)(cd) (fe)dc|f2B2^A2^GF|f>edf e>dce|f2B2^A2 (GF)|E2E2F2^A2|

